Icons/rename_me_news_republic.svg

<svg viewBox="0 0 48 48" xmlns:xlink="http://www.w3.org/1999/xlink">
 <defs>
  <linearGradient id="0">
   <stop stop-opacity="0"/>
   <stop offset="1"/>
  </linearGradient>
  <linearGradient xlink:href="#0" id="1" gradientUnits="userSpaceOnUse" gradientTransform="translate(4e-7,-48)" y1="47" x2="0" y2="1"/>
  <clipPath id="2">
   <g transform="translate(0,-1004.3622)">
    <rect rx="4" y="1005.36" x="1" height="46" width="46" fill="#1890d0"/>
   </g>
  </clipPath>
  <clipPath id="3">
   <g transform="translate(0,-1004.3622)">
    <rect rx="4" y="1005.36" x="1" height="46" width="46" fill="#1890d0"/>
   </g>
  </clipPath>
 </defs>
 <g>
  <g transform="translate(0,-1004.3622)">
   <path d="m 5,1006.3622 c -2.216,0 -4,1.784 -4,4 l 0,37.25 c 0,2.216 1.784,4 4,4 l 38,0 c 2.216,0 4,-1.784 4,-4 l 0,-37.25 c 0,-2.216 -1.784,-4 -4,-4 l -38,0 z m -4,41.5 0,0.5 c 0,2.216 1.784,4 4,4 l 38,0 c 2.216,0 4,-1.784 4,-4 l 0,-0.5 c 0,2.216 -1.784,4 -4,4 l -38,0 c -2.216,0 -4,-1.784 -4,-4 z" opacity="0.02"/>
   <path d="m 1,1047.6122 0,0.25 c 0,2.216 1.784,4 4,4 l 38,0 c 2.216,0 4,-1.784 4,-4 l 0,-0.25 c 0,2.216 -1.784,4 -4,4 l -38,0 c -2.216,0 -4,-1.784 -4,-4 z" opacity="0.05"/>
   <rect width="46" height="46" x="1" y="1005.61" rx="4" opacity="0.1"/>
  </g>
 </g>
 <g>
  <g transform="translate(0,-1004.3622)">
   <rect rx="4" y="1005.36" x="1" height="46" width="46" fill="#e20711"/>
  </g>
 </g>
 <g>
  <rect transform="scale(1,-1)" width="46" height="46" x="1" y="-46.998" rx="4" opacity="0.1" fill="url(#1)"/>
 </g>
 <g>
  <g clip-path="url(#2)">
   <g opacity="0.1">
    <g>
     <path d="M 22 18 L 16 28 L 21 29 L 25 18 Z M 22 18 "/>
     <path d="M 25 18 L 31 23 L 32 22 L 26 17 Z M 25 18 "/>
     <path d="M 30 17 L 31 22 L 33 22 L 32 17 Z M 30 17 "/>
     <path d="M 23 31 C 23 33.761719 20.761719 36 18 36 C 15.238281 36 13 33.761719 13 31 C 13 28.238281 15.238281 26 18 26 C 20.761719 26 23 28.238281 23 31 Z M 23 31 "/>
     <path d="M 27 16 C 27 17.65625 25.65625 19 24 19 C 22.34375 19 21 17.65625 21 16 C 21 14.34375 22.34375 13 24 13 C 25.65625 13 27 14.34375 27 16 Z M 27 16 "/>
     <path d="M 34 23 C 34 24.105469 33.105469 25 32 25 C 30.894531 25 30 24.105469 30 23 C 30 21.894531 30.894531 21 32 21 C 33.105469 21 34 21.894531 34 23 Z M 34 23 "/>
     <path d="M 33 16 C 33 17.105469 32.105469 18 31 18 C 29.894531 18 29 17.105469 29 16 C 29 14.894531 29.894531 14 31 14 C 32.105469 14 33 14.894531 33 16 Z M 33 16 "/>
    </g>
   </g>
  </g>
 </g>
 <g>
  <g clip-path="url(#3)">
   <g transform="translate(0,-1)">
    <g>
     <path d="M 22 18 L 16 28 L 21 29 L 25 18 Z M 22 18 " fill="#f9f9f9"/>
     <path d="M 25 18 L 31 23 L 32 22 L 26 17 Z M 25 18 " fill="#f9f9f9"/>
     <path d="M 30 17 L 31 22 L 33 22 L 32 17 Z M 30 17 " fill="#f9f9f9"/>
     <path d="M 23 31 C 23 33.761719 20.761719 36 18 36 C 15.238281 36 13 33.761719 13 31 C 13 28.238281 15.238281 26 18 26 C 20.761719 26 23 28.238281 23 31 Z M 23 31 " fill="#f9f9f9"/>
     <path d="M 27 16 C 27 17.65625 25.65625 19 24 19 C 22.34375 19 21 17.65625 21 16 C 21 14.34375 22.34375 13 24 13 C 25.65625 13 27 14.34375 27 16 Z M 27 16 " fill="#f9f9f9"/>
     <path d="M 34 23 C 34 24.105469 33.105469 25 32 25 C 30.894531 25 30 24.105469 30 23 C 30 21.894531 30.894531 21 32 21 C 33.105469 21 34 21.894531 34 23 Z M 34 23 " fill="#f9f9f9"/>
     <path d="M 33 16 C 33 17.105469 32.105469 18 31 18 C 29.894531 18 29 17.105469 29 16 C 29 14.894531 29.894531 14 31 14 C 32.105469 14 33 14.894531 33 16 Z M 33 16 " fill="#f9f9f9"/>
    </g>
   </g>
  </g>
 </g>
 <g>
  <g transform="translate(0,-1004.3622)">
   <path d="m 1,1043.3622 0,4 c 0,2.216 1.784,4 4,4 l 38,0 c 2.216,0 4,-1.784 4,-4 l 0,-4 c 0,2.216 -1.784,4 -4,4 l -38,0 c -2.216,0 -4,-1.784 -4,-4 z" opacity="0.1"/>
  </g>
 </g>
</svg>

<svg viewBox="0 0 48 48"><defs><linearGradient id="linearGradient3764" x1="1" x2="47" gradientUnits="userSpaceOnUse" gradientTransform="translate(-48.000001,0.00221467)"><stop stop-color="#ce0610" stop-opacity="1"/><stop offset="1" stop-color="#e20711" stop-opacity="1"/></linearGradient><clipPath id="clipPath-791066546"><g transform="translate(0,-1004.3622)"><rect rx="4" y="1005.36" x="1" height="46" width="46" fill="#1890d0"/></g></clipPath><clipPath id="clipPath-803938567"><g transform="translate(0,-1004.3622)"><rect rx="4" y="1005.36" x="1" height="46" width="46" fill="#1890d0"/></g></clipPath></defs><g><path d="m 1 43 l 0 0.25 c 0 2.216 1.784 4 4 4 l 38 0 c 2.216 0 4 -1.784 4 -4 l 0 -0.25 c 0 2.216 -1.784 4 -4 4 l -38 0 c -2.216 0 -4 -1.784 -4 -4 z m 0 0.5 l 0 0.5 c 0 2.216 1.784 4 4 4 l 38 0 c 2.216 0 4 -1.784 4 -4 l 0 -0.5 c 0 2.216 -1.784 4 -4 4 l -38 0 c -2.216 0 -4 -1.784 -4 -4 z" opacity="0.02"/><path d="m 1 43.25 l 0 0.25 c 0 2.216 1.784 4 4 4 l 38 0 c 2.216 0 4 -1.784 4 -4 l 0 -0.25 c 0 2.216 -1.784 4 -4 4 l -38 0 c -2.216 0 -4 -1.784 -4 -4 z" opacity="0.05"/><path d="m 1 43 l 0 0.25 c 0 2.216 1.784 4 4 4 l 38 0 c 2.216 0 4 -1.784 4 -4 l 0 -0.25 c 0 2.216 -1.784 4 -4 4 l -38 0 c -2.216 0 -4 -1.784 -4 -4 z" opacity="0.1"/></g><g><rect width="46" height="46" x="-47" y="1" rx="4" transform="matrix(0,-1,1,0,0,0)" fill="url(#linearGradient3764)" fill-opacity="1"/></g><g><g clip-path="url(#clipPath-791066546)"><g opacity="0.1"><!-- color: #e20711 --><g><path d="m 22 18 l -6 10 l 5 1 l 4 -11 m -3 0" fill="#000"/><path d="m 25 18 l 6 5 l 1 -1 l -6 -5 m -1 1" fill="#000"/><path d="m 30 17 l 1 5 l 2 0 l -1 -5 m -2 0" fill="#000"/><path d="m 23 31 c 0 2.762 -2.238 5 -5 5 c -2.762 0 -5 -2.238 -5 -5 c 0 -2.762 2.238 -5 5 -5 c 2.762 0 5 2.238 5 5 m 0 0" fill="#000"/><path d="m 27 16 c 0 1.656 -1.344 3 -3 3 c -1.656 0 -3 -1.344 -3 -3 c 0 -1.656 1.344 -3 3 -3 c 1.656 0 3 1.344 3 3 m 0 0" fill="#000"/><path d="m 34 23 c 0 1.105 -0.895 2 -2 2 c -1.105 0 -2 -0.895 -2 -2 c 0 -1.105 0.895 -2 2 -2 c 1.105 0 2 0.895 2 2 m 0 0" fill="#000"/><path d="m 33 16 c 0 1.105 -0.895 2 -2 2 c -1.105 0 -2 -0.895 -2 -2 c 0 -1.105 0.895 -2 2 -2 c 1.105 0 2 0.895 2 2 m 0 0" fill="#000"/></g></g></g></g><g><g clip-path="url(#clipPath-803938567)"><g transform="translate(0,-1)"><!-- color: #e20711 --><g><path d="m 22 18 l -6 10 l 5 1 l 4 -11 m -3 0" fill="#f9f9f9"/><path d="m 25 18 l 6 5 l 1 -1 l -6 -5 m -1 1" fill="#f9f9f9"/><path d="m 30 17 l 1 5 l 2 0 l -1 -5 m -2 0" fill="#f9f9f9"/><path d="m 23 31 c 0 2.762 -2.238 5 -5 5 c -2.762 0 -5 -2.238 -5 -5 c 0 -2.762 2.238 -5 5 -5 c 2.762 0 5 2.238 5 5 m 0 0" fill="#f9f9f9"/><path d="m 27 16 c 0 1.656 -1.344 3 -3 3 c -1.656 0 -3 -1.344 -3 -3 c 0 -1.656 1.344 -3 3 -3 c 1.656 0 3 1.344 3 3 m 0 0" fill="#f9f9f9"/><path d="m 34 23 c 0 1.105 -0.895 2 -2 2 c -1.105 0 -2 -0.895 -2 -2 c 0 -1.105 0.895 -2 2 -2 c 1.105 0 2 0.895 2 2 m 0 0" fill="#f9f9f9"/><path d="m 33 16 c 0 1.105 -0.895 2 -2 2 c -1.105 0 -2 -0.895 -2 -2 c 0 -1.105 0.895 -2 2 -2 c 1.105 0 2 0.895 2 2 m 0 0" fill="#f9f9f9"/></g></g></g></g><g><g transform="translate(0,-1004.3622)"><path d="m 1 1043.36 0 4 c 0 2.216 1.784 4 4 4 l 38 0 c 2.216 0 4 -1.784 4 -4 l 0 -4 c 0 2.216 -1.784 4 -4 4 l -38 0 c -2.216 0 -4 -1.784 -4 -4 z" opacity="0.1"/></g></g></svg>
